src/assets/images/icons/arrow.svg

<svg fill="none" height="10" viewBox="0 0 30 10" width="30" xmlns="http://www.w3.org/2000/svg"><path clip-rule="evenodd" d="m24.2562.0579886c-.0697.0311599-.1728.1356794-.2291.2323674-.2147.368154-.1957.391429 1.8868 2.314204l1.914 1.76709-13.7041.02719c-15.109826.02996-13.870457-.00256-14.0613968.36913-.1212874.23595-.06464736.46076.1600878.63543l.176809.13742h13.714c7.5426 0 13.7139.01789 13.7139.0397 0 .02186-.8744.8486-1.943 1.83724-1.7573 1.62569-1.943 1.81445-1.943 1.97503 0 .36913.2595.60721.6617.60721.1651 0 .4586-.25086 2.72-2.32475 1.3942-1.27859 2.5673-2.3737 2.6068-2.43352.0966-.14645.0936-.32824-.0086-.50574-.1019-.17717-4.8952-4.596431-5.0781-4.6818623-.1576-.0736309-.4173-.0719451-.5868.0038609z" fill="#000" fill-rule="evenodd" opacity=".5"/></svg>

<svg width="30" height="10" viewBox="0 0 30 10" fill="none" xmlns="http://www.w3.org/2000/svg">
<path opacity="0.5" fill-rule="evenodd" clip-rule="evenodd" d="M24.2562 0.0579886C24.1865 0.0891485 24.0834 0.193668 24.0271 0.290356C23.8124 0.65851 23.8314 0.681785 25.9139 2.60456L27.8279 4.37165L14.1238 4.39884C-0.986026 4.4288 0.253343 4.39628 0.0624032 4.76797C-0.0588842 5.00392 -0.00224416 5.22873 0.222491 5.4034L0.3993 5.54082H14.1133C21.6559 5.54082 27.8272 5.55871 27.8272 5.58052C27.8272 5.60238 26.9528 6.42912 25.8842 7.41776C24.1269 9.04345 23.9412 9.23221 23.9412 9.39279C23.9412 9.76192 24.2007 10 24.6029 10C24.768 10 25.0615 9.74914 27.3229 7.67525C28.7171 6.39666 29.8902 5.30155 29.9297 5.24173C30.0263 5.09528 30.0233 4.91349 29.9211 4.73599C29.8192 4.55882 25.0259 0.139559 24.843 0.0541277C24.6854 -0.0195032 24.4257 -0.0178174 24.2562 0.0579886Z" fill="black"/>
</svg>
